!!!OTL: Graf und Nonne (Die Nonne)
!!!OTL-incipit:Es welken alle Blaetter,
!!!ARE: Europa, Mitteleuropa, Deutschland (BRD), Franken, Haselbach v.d. Rhoen
!!!YOR: 8, S. 82
!!    1933 aufgezeichnet
!!!SCT: Q0155a
!!!TXL: @@DE
!!!YEM: Copyright 1995, estate of Helmut Schaffrath.
**kern	**text
*ICvox	*
*M2/4	*
*k[b-e-]	*
*B-:	*
{8f	Es
=1	=1
8.b-L	wel-
16fJ	-ken
8dL	al-
8fJ	-le
=2	=2
(8b-L	Blät-
8ddJ)	.
8dd}	-ter,
{8ff	sie
=3	=3
8.ccL	fal-
16b-J	-len
8aL	all
8b-J	auf
=4	=4
4cc	mich,
8r}	.
{16b-L	ja,
16ccJ	weil
=5	=5
8.ddL	mich's
16ddJ	mein
8.ddL	Schatʒ
16ddJ	ver-
=6	=6
8ddL	-las-
8ffJ	-sen
8ee-}	hat,
{16ddL	ja,
16ddJ	weil
=7	=7
8.ccL	mich's
16ee-J	mein
8.ee-L	Schatʒ
16ee-J	ver-
=8	=8
8ee-L	-las-
8ggJ	-sen
8ff}	hat,
{(16ffL	das
16ee-J)	.
=9	=9
8ddL	kran-
8ddJ	-ket,
8ccL	krän-
8ccJ	-ket
=10	=10
4dd	mich.
8r}	.
==	==
!!!AGN: Ballade, Standesunterschied, vergebliche Werbung, Liebe, Klage
!!!ONB: ESAC (Essen Associative Code) Database: BALLADE
!!!AMT: simple duple
!!!AIN: vox
!!!EED: Helmut Schaffrath
!!!EEV: 1.0
!!@@COMMENT:"Vorgesungen von Veronika Reder in Haselbach v. d. Rhön, 1933
!!(Sammlung Carl Hartenstein; DVA = A 141 848)"
!!@@END:
!!!source: Deutsche Volkslieder mit ihren Melodien. Herausgegeben vom Deutschen Volksliedarchiv. Achter Teil. Freiburg/Breisgau 1988.
!!!page: 82
!!!ENC: Anna Maria Matuszewska
!!!EEV: 2025/03/10
*-	*-
